X: 83
T:Scottiche de Roquefort
M:2/4
L:1/8
Q:1/8=150
O:France
K:C
gg a>g|fg ec|d/2e/2f/2d/2 ec|1dg ec:|2dB c2|
|:cB/2A/2 GG|c/2B/2c/2d/2 ee|fd/2f/2 ec/2e/2|1dg ec:|2dB c2||
W:
W: From "Falaleiro" http://home.t-online.de/home/pheld/homepage.htm

